svg/u1f9b4.svg

<svg viewBox="0 0 128 128" xmlns="http://www.w3.org/2000/svg">
  <g>
    <path d="M122,81.14c-4.21-5.9-14.22-5.49-17.03-5.38l-0.37,0.01c-4.94,0.2-9.74-1.7-13.2-5.22L57.3,36.45 c-3.47-3.53-5.28-8.36-4.99-13.29l0.02-0.37c0.16-2.8,0.35-6.57-0.05-9.52C51.66,8.7,47.05,1.7,34.99,4.15 c-6.22,1.26-8.57,3.72-9.04,9.56c-0.1,1.24,0.53,7.65-1.94,10.22c-1.22,1.27-8.11,0.62-9.35,0.7C8.81,25.01,3.9,29.19,3.9,37.57 c-0.01,9.07,5.68,14.25,8.95,14.45c2.97,0.18,6.71,0.33,9.52,0.22l8.59-0.43c0,0,1.15,1.14,4.61,4.66l34.48,35.08 c3.47,3.53,5.28,8.36,4.99,13.29l-0.02,0.37c-0.16,2.8-1.72,13.28,5.07,17.12c0.94,0.53,5.6,2.84,12.27,1.53 c6.23-1.23,8.57-3.72,9.04-9.56c0.1-1.24,0.11-8.87,2.65-11.36c2.54-2.49,8.43-1.52,9.67-1.6c5.85-0.37,9.32-1.99,10.49-8.23 C125.24,87.61,122.63,82.02,122,81.14z" fill="#FCEACC"/>
    <path d="M26.26,11.1c0.8-3.07,4.92-2.66,5.94-1.67c1.05,1.01,1.63,2.42,1.82,3.84 c0.75,5.81-1.2,9.15-3.23,10.24c-2.06,1.09-3.43,1.28-6.48,1.59c-1.85,0.19-3.38-0.11-2.73-0.46c1.03-0.55,3.14-1.99,3.6-2.83 c0.53-0.98,0.51-1.86,0.61-2.9C26.03,16.31,25.59,13.66,26.26,11.1z" fill="#DEBCA8"/>
    <path d="M124.21,93.1c0-0.02,0.01-0.04,0.01-0.06c0.32-1.75-1.72-3-3.15-1.95c-0.33,0.24-0.7,0.48-1.09,0.7 c-4.09,2.29-9.73,0.46-13.55,3.17c-6.79,4.82-2.82,17.85-7.43,20.95c-2.63,1.77-7.73,2.3-10.55,0.87c-4.55-2.3-5.24-5.19-5.48-8.35 c-0.36-4.73-0.41-10.04-1.14-13.72c-0.99-4.98-7.27-11.72-7.27-11.72S48.8,54.75,39.12,45.96c-3.72-3.37-9.51-2.21-13.93-1.67 c-5.17,0.62-8.6,0.19-11.63-2.4s-3.85-8.54-2.59-12.32s7.01-4.86,7.01-4.86c-2.02-0.09-2.7-0.12-3.33-0.08 C8.81,25.01,3.9,29.19,3.9,37.57c-0.01,9.07,5.42,13.76,8.6,14.55c3.58,0.9,12.96-0.04,12.96-0.04s5.07-0.7,7.15,1.38 c0.71,0.71,1.68,1.7,2.96,3.01l34.48,35.08c3.47,3.53,5.28,8.36,4.99,13.29l-0.02,0.37c-0.16,2.8-1.72,13.28,5.07,17.12 c0.94,0.53,5.6,2.84,12.27,1.53c6.23-1.23,8.57-3.72,9.04-9.56c0.1-1.24,0.11-8.87,2.65-11.36c2.54-2.49,8.43-1.52,9.67-1.6 C119.57,100.96,123.05,99.34,124.21,93.1z" fill="#DEBCA8"/>
  </g>
</svg>

<svg viewBox="0 0 128 128" xmlns="http://www.w3.org/2000/svg">
  <defs/>
  <path d="M122,81.14 C117.79,75.24 107.78,75.65 104.97,75.76 L104.6,75.77 C99.66,75.97 94.86,74.07 91.4,70.55 L57.3,36.45 C53.83,32.92 52.02,28.09 52.31,23.16 L52.33,22.79 C52.49,19.99 52.68,16.22 52.28,13.27 C51.66,8.7 47.05,1.7 34.99,4.15 C28.77,5.41 26.42,7.87 25.95,13.71 C25.85,14.95 26.48,21.36 24.01,23.93 C22.79,25.2 15.9,24.55 14.66,24.63 C8.81,25.01 3.9,29.19 3.9,37.57 C3.89,46.64 9.58,51.82 12.85,52.02 C15.82,52.2 19.56,52.35 22.37,52.24 L30.96,51.81 C30.96,51.81 32.11,52.95 35.57,56.47 L70.05,91.55 C73.52,95.08 75.33,99.91 75.04,104.84 L75.02,105.21 C74.86,108.01 73.3,118.49 80.09,122.33 C81.03,122.86 85.69,125.17 92.36,123.86 C98.59,122.63 100.93,120.14 101.4,114.3 C101.5,113.06 101.51,105.43 104.05,102.94 C106.59,100.45 112.48,101.42 113.72,101.34 C119.57,100.97 123.04,99.35 124.21,93.11 C125.24,87.61 122.63,82.02 122,81.14 Z" fill="#FCEACC"/>
  <path d="M26.26,11.1 C27.06,8.03 31.18,8.44 32.2,9.43 C33.25,10.44 33.83,11.85 34.02,13.27 C34.77,19.08 32.82,22.42 30.79,23.51 C28.73,24.6 27.36,24.79 24.31,25.1 C22.46,25.29 20.93,24.99 21.58,24.64 C22.61,24.09 24.72,22.65 25.18,21.81 C25.71,20.83 25.69,19.95 25.79,18.91 C26.03,16.31 25.59,13.66 26.26,11.1 Z" fill="#DEBCA8"/>
  <path d="M124.21,93.1 C124.21,93.08 124.22,93.06 124.22,93.04 C124.54,91.29 122.5,90.04 121.07,91.09 C120.74,91.33 120.37,91.57 119.98,91.79 C115.89,94.08 110.25,92.25 106.43,94.96 C99.64,99.78 103.61,112.81 99,115.91 C96.37,117.68 91.27,118.21 88.45,116.78 C83.9,114.48 83.21,111.59 82.97,108.43 C82.61,103.7 82.56,98.39 81.83,94.71 C80.84,89.73 74.56,82.99 74.56,82.99 C74.56,82.99 48.8,54.75 39.12,45.96 C35.4,42.59 29.61,43.75 25.19,44.29 C20.02,44.91 16.59,44.48 13.56,41.89 C10.53,39.3 9.71,33.35 10.97,29.57 C12.23,25.79 17.98,24.71 17.98,24.71 C15.96,24.62 15.28,24.59 14.65,24.63 C8.81,25.01 3.9,29.19 3.9,37.57 C3.89,46.64 9.32,51.33 12.5,52.12 C16.08,53.02 25.46,52.08 25.46,52.08 C25.46,52.08 30.53,51.38 32.61,53.46 C33.32,54.17 34.29,55.16 35.57,56.47 L70.05,91.55 C73.52,95.08 75.33,99.91 75.04,104.84 L75.02,105.21 C74.86,108.01 73.3,118.49 80.09,122.33 C81.03,122.86 85.69,125.17 92.36,123.86 C98.59,122.63 100.93,120.14 101.4,114.3 C101.5,113.06 101.51,105.43 104.05,102.94 C106.59,100.45 112.48,101.42 113.72,101.34 C119.57,100.96 123.05,99.34 124.21,93.1 Z" fill="#DEBCA8"/>
</svg>
